public/assets/icons/book.svg

<svg width="16" height="16" viewBox="0 0 16 16" fill="none" xmlns="http://www.w3.org/2000/svg">
<path d="M8.00004 4.66667V14M8.00004 4.66667C8.00004 3.95942 7.71909 3.28115 7.21899 2.78105C6.71889 2.28095 6.04062 2 5.33337 2H2.00004C1.82323 2 1.65366 2.07024 1.52864 2.19526C1.40361 2.32029 1.33337 2.48986 1.33337 2.66667V11.3333C1.33337 11.5101 1.40361 11.6797 1.52864 11.8047C1.65366 11.9298 1.82323 12 2.00004 12H6.00004C6.53047 12 7.03918 12.2107 7.41425 12.5858C7.78933 12.9609 8.00004 13.4696 8.00004 14M8.00004 4.66667C8.00004 3.95942 8.28099 3.28115 8.78109 2.78105C9.28119 2.28095 9.95946 2 10.6667 2H14C14.1769 2 14.3464 2.07024 14.4714 2.19526C14.5965 2.32029 14.6667 2.48986 14.6667 2.66667V11.3333C14.6667 11.5101 14.5965 11.6797 14.4714 11.8047C14.3464 11.9298 14.1769 12 14 12H10C9.46961 12 8.9609 12.2107 8.58583 12.5858C8.21075 12.9609 8.00004 13.4696 8.00004 14M10.6667 8H12M10.6667 5.33333H12M4.00004 8H5.33337M4.00004 5.33333H5.33337" stroke="currentColor" stroke-width="1.33333" stroke-linecap="round" stroke-linejoin="round"/>
</svg>

<svg xmlns="http://www.w3.org/2000/svg" width="16" height="16" fill="none" viewBox="0 0 16 16"><path stroke="currentColor" stroke-linecap="round" stroke-linejoin="round" stroke-width="1.333" d="M8 4.667V14m0-9.333A2.667 2.667 0 0 0 5.333 2H2a.667.667 0 0 0-.667.667v8.666A.667.667 0 0 0 2 12h4a2 2 0 0 1 2 2m0-9.333A2.667 2.667 0 0 1 10.667 2H14a.666.666 0 0 1 .667.667v8.666A.666.666 0 0 1 14 12h-4a2 2 0 0 0-2 2m2.667-6H12m-1.333-2.667H12M4 8h1.333M4 5.333h1.333"/></svg>
